X:8
T:Les archers du Roi
R:
A:
N:p 25
D:
O:France
Z: <anamnese@laposte.net>
M:3/4
L:1/4
Q:1/4=130
K:Bb
K:Gm
%%staves (1 2)
V:1
G2 G | d2 d | c2 d | B3 | B2 A | G2 B | A2 G | (^F2D) |
G2 G | d2 d | c2 d | B3 | c3 | d3 | A B A | (A3 |G) z z ||
V:2 
G2 G | ^F2 D | =E2 ^F | G3 | G2 =F | _E2 D | C2 E | (D2 D) |
G2 G | ^F2 D | =E2 ^F | G3 | _E3  |  B,3 | EDC | (D3 | G) x x ||  
W:Les archers du roi s'en vont, Ils chevauchent par la ville,
W:Bons bourgeois en vos maisons, Dormez, dormez tranquilles
W:Cachez-vous, mausvais garons, Lorsque les archers s'avancent,
W:Vous pourriez,  Montfaucon, Finir sur la potence.
